X:565
T:Polska efter Olof Nordblad
T:(SvL Hälsingland 565)
R:Polska
B:Svenska Låtar Hälsingland
O:Norrala, Hälsingland
S:Olof Nordblad
M:3/4
L:1/16
K:C
vc2cG E2EG c2ce|d2dc B2Bd f4|g2ec a2fd g2ec|cBce (dc)BA G4|
c2cG E2EG c2ce|d2dc B2Bd f4|g2ec a2fd g2ec|(Bc)dB c4 C4:|
|:g2ec c2eg g2ec|d2BG G2Bd d4|g2ec a2fd g2ec|c2Bc (dc)BA G4|
g2ec c2eg g2ec|d2BG G2Bd d4|g2ec a2fd g2ec|(Bc)dB c4 C4:|

